!!!!SEGMENT: Ren2006-Illuminavit_eum_Dominus.krn
!!!id: Ren2006
!!!AGN: Motet
!!!voices: 4
!!!COM: Renaldo
!!!OTL: Illuminavit eum Dominus
**kern	**kern	**kern	**kern
*part4	*part3	*part2	*part1
*staff4	*staff3	*staff2	*staff1
*I"Bassus	*I"Tenor	*I"Altus	*I"Superius
*I'B	*I'T	*I'A	*I'S
*clefF4	*clefGv2	*clefG2	*clefG2
*k[b-]	*k[b-]	*k[b-]	*k[b-]
*F:	*F:	*F:	*F:
*M2/1	*M2/1	*M2/1	*M2/1
*met(C|)	*met(C|)	*met(C|)	*met(C|)
!!section: Prima Pars: Illuminavit eum Dominus
!!!OMD: Prima Pars: Illuminavit eum Dominus
=1	=1	=1	=1
0r	0r	1r	1.cc
.	.	[1f	.
.	.	.	2cc
=2	=2	=2	=2
0r	0r	2f]	1a
.	.	2f	.
.	.	1d	1b-y
=3	=3	=3	=3
1r	1.c	1e	2.cc
.	.	.	4b-y
[1F	.	2.f	4a
.	.	.	4g
.	2c	.	[2a
.	.	8eL	.
.	.	8dJ	.
=4	=4	=4	=4
2F]	1A	1c	4a]
.	.	.	4g
2F	.	.	1f
1D	1B-y	1d	.
.	.	.	4e
.	.	.	4d
=5	=5	=5	=5
1E	1c	1r	1g
1F	1A	1c	1f
=6	=6	=6	=6
2.BB-y	2B-y	2d	2.f
.	2.d	2B-y	.
4C	.	.	4e
4D	.	1A	4f
4E	4c	.	4g
[2F	4A	.	[2a
.	4B-y	.	.
=7	=7	=7	=7
2F]	2c	1f	2a]
4E	2d	.	4g
4D	.	.	4f
2E	2G	2e	2g
[2F	2c	2A	[2a
=8	=8	=8	=8
2F]	2A	2c	4a]
.	.	.	4g
2BB-y	2B-y	2d	1f
1C	1G	1c	.
.	.	.	2e
=9	=9	=9	=9
1FF	1F	0A	[0f
2r	1r	.	.
[2F	.	.	.
=10	=10	=10	=10
2F]	0r	2r	1f]
4E	.	1c	.
4D	.	.	.
2E	.	.	1r
2F	.	4B-y	.
.	.	4A	.
=11	=11	=11	=11
2G	0r	2B-y	0r
2C	.	1c	.
1D	.	.	.
.	.	2BnXi	.
=12	=12	=12	=12
1C	1r	1c	2r
.	.	.	1g
1G	2r	2B-y	.
.	[2d	4A	4f
.	.	4G	4e
=13	=13	=13	=13
2D	2d]	2A	2f
2G	4c	2B-y	2g
.	4B-y	.	.
2F	2c	2A	2a
2BB-y	2d	2f	2b-y
=14	=14	=14	=14
2F	2c	2f	2a
2BB-y	2d	2f	2.b-y
1E-X	1G	2.B-y	.
.	.	.	4a
.	.	.	[2g
.	.	4c	.
=15	=15	=15	=15
1D	1A	1d	2g]
.	.	.	2f#i
1G	1G	1d	1g
=16	=16	=16	=16
2r	2r	2r	2r
1C	1c	1e	1g
2C	2c	2e	2g
=17	=17	=17	=17
2C	2c	2e	2g
2C	2c	2e	2g
1F	1c	1f	1a
=18	=18	=18	=18
1C	1c	1e	1g
1F	1c	1f	2r
.	.	.	[2a
=19	=19	=19	=19
1D	1d	1f	2a]
.	.	.	2f
2E	2c	1r	2g
[2F	[2A	.	[2a
=20	=20	=20	=20
4F]	4A]	1F	4a]
4E	4B-y	.	4g
4D	1c	.	4f
4C	.	.	4e
2D	.	2F	2f
2D	2BnXi	2F	2f
=21	=21	=21	=21
1C	0c	1G	1e
1F	.	2F	2r
.	.	2f	2a
=22	=22	=22	=22
2E	1c	2g	2g
1F	.	2f	1a
.	[1A	4F	.
.	.	4G	.
4E	.	4A	4g
4D	.	4B-y	4f
=23	=23	=23	=23
2C	1A]	2c	2e
2D	.	2F	2f
2C	1A	2c	2e
2D	.	2A	[2f
=24	=24	=24	=24
4BB-y	1B-y	1d	2f]
4C	.	.	.
4D	.	.	4e
4E	.	.	4d
2F	1A	2r	2c
2D	.	[2d	2f
=25	=25	=25	=25
2G	2B-y	4d]	2g
.	.	4e	.
1F	2.c	2.f	2.a
.	4A	4e	4g
2BB-y	2B-y	2d	[2f
=26	=26	=26	=26
1C	1G	1c	2f]
.	.	.	2e
[1FF	[1F	[1c	[1f
=27	=27	=27	=27
1FF;]	1F;]	1c;]	1f;]
[1F	[1c	[1f	[1a
=28	=28	=28	=28
1F]	1c]	1f]	1a]
[1G	[1B-y	[1d	[1g
=29	=29	=29	=29
1G]	1B-]	1d]	1g]
[1C	[1c	[1e	[1g
=30	=30	=30	=30
1C;]	1c;]	1e;]	1g;]
1r	1F	1r	1r
=31	=31	=31	=31
0r	2F	0r	0r
.	2F	.	.
.	1G	.	.
=32	=32	=32	=32
0r	1A	1c	1r
.	1F	2c	1f
.	.	2c	.
=33	=33	=33	=33
0r	2.B-y	1d	2f
.	.	.	2f
.	4A	.	.
.	1G	1e	1g
=34	=34	=34	=34
1F	1F	2.f	2.a
.	.	8eL	4g
.	.	8dJ	.
2F	2.f	1c	4a
.	.	.	4b-y
2F	.	.	[2cc
.	4e	.	.
=35	=35	=35	=35
1G	1d	2.g	2cc]
.	.	.	2bnXi
.	.	4f	.
1A	1c	1e	1cc
=36	=36	=36	=36
1D	2r	0d	1f
.	1A	.	.
2D	.	.	2f
2D	[2B-y	.	2f
=37	=37	=37	=37
1E	2B-]	1r	1g
.	1c	.	.
1F	.	1f	1a
.	[2d	.	.
=38	=38	=38	=38
1BB-y	2d]	2.f	2b-y
.	2c	.	2a
.	.	4e	.
2BB-y	2B-y	2d	2g
2BB-y	2A	2d	[2f
=39	=39	=39	=39
1C	1G	1c	2f]
.	.	.	2e
2.D	2.F	1A	2f
.	.	.	[2a
4E	4G	.	.
=40	=40	=40	=40
2F	2A	1r	2a]
2G	2B-y	.	4g
.	.	.	4f
1C	2.c	2r	2e
.	.	[2c	[2g
.	4B-y	.	.
=41	=41	=41	=41
1D	2A	2c]	4g]
.	.	.	4f
.	4G	2B-y	1f
.	4F	.	.
1C	1G	1c	.
.	.	.	2e
=42	=42	=42	=42
1FF	1F	2A	0f
.	.	1c	.
1F	1r	.	.
.	.	2d	.
=43	=43	=43	=43
2G	0r	2B-y	0r
2E	.	2c	.
2F	.	1d	.
[2G	.	.	.
=44	=44	=44	=44
2G]	0r	1e	0r
1A	.	.	.
.	.	2c	.
2F	.	[2f	.
=45	=45	=45	=45
2.B-y	0r	4f]	0r
.	.	4e	.
.	.	2.d	.
4A	.	.	.
2.G	.	.	.
.	.	4c	.
.	.	4B-y	.
4F	.	4A	.
=46	=46	=46	=46
4E	0r	2G	0r
4D	.	.	.
2.F	.	2.A	.
4E	.	4G	.
4D	.	[2c	.
4C	.	.	.
=47	=47	=47	=47
1D	1r	2c]	1r
.	.	2BnXi	.
1C	1G	1c	2r
.	.	.	[2g
=48	=48	=48	=48
0r	1c	0r	2g]
.	.	.	2a
.	2d	.	2b-y
.	2e	.	[2cc
=49	=49	=49	=49
0r	2.f	0r	4cc]
.	.	.	4b-y
.	.	.	2.a
.	4e	.	.
.	2.d	.	.
.	.	.	4g
.	.	.	4f
.	4c	.	4e
=50	=50	=50	=50
0r	4B-y	0r	2d
.	4A	.	.
.	2G	.	2.g
.	2.c	.	.
.	.	.	4f
.	.	.	4e
.	4B-y	.	4d
=51	=51	=51	=51
0r	4A	0r	2c
.	4G	.	.
.	1F	.	2.a
.	.	.	4g
.	2A	.	2f
=52	=52	=52	=52
0r	2G	0r	2e
.	2F	.	1f
.	1G	.	.
.	.	.	2e
=53	=53	=53	=53
1r	1F	1r	1f
2r	2r	2r	2r
[2BB-y	[2B-y	[2d	[2f
=54	=54	=54	=54
2BB-]	2B-]	2d]	2f]
2BB-y	2B-y	2d	2f
2BB-y	2B-y	2d	2f
2BB-y	2B-y	2d	2f
=55	=55	=55	=55
1F	1A	1c	1f
1F	1A	1c	1f
=56	=56	=56	=56
1C	1G	1c	1e
2r	2r	2r	2r
[2BB-y	[2B-y	[2d	[2f
=57	=57	=57	=57
2BB-]	2B-]	2d]	2f]
2BB-y	2B-y	2d	2f
2.C	1G	2c	1e
.	.	4B-y	.
4D	.	4A	.
=58	=58	=58	=58
2E	0r	2G	0r
2F	.	1A	.
2C	.	.	.
[2F	.	4G	.
.	.	4F	.
=59	=59	=59	=59
2F]	1r	1G	1r
2E	.	.	.
1F	2.c	1F	2.a
.	4c	.	4a
=60	=60	=60	=60
0r	2B-y	0r	2g
.	2A	.	2f
.	2G	.	2f
.	2G	.	2e
=61	=61	=61	=61
1r	1F	1r	1f
2r	2r	2r	2r
[2D	[2A	[2d	[2f
=62	=62	=62	=62
2D]	2A]	2d]	2f]
2G	2B-y	2d	2g
2G	2B-y	2d	2g
2D	2A	2d	2f
=63	=63	=63	=63
2G	2B-y	2d	2g
2G	2B-y	2d	2g
1F	1c	2.f	1a
.	.	4e	.
=64	=64	=64	=64
2G	0r	2d	0r
1A	.	2.c	.
.	.	4d	.
4G	.	4e	.
4F	.	4f	.
=65	=65	=65	=65
2E	0r	2g	0r
2F	.	1f	.
1G	.	.	.
.	.	2e	.
=66	=66	=66	=66
1.F	2r	1.f	2r
.	1c	.	1a
2BB-y	4B-y	2d	4g
.	4A	.	4f
=67	=67	=67	=67
2C	2G	2c	2e
2D	2F	2B-y	1f
1C	1G	1c	.
.	.	.	2e
=68	=68	=68	=68
0FF	1F	2.c	2f
.	.	.	1cc
.	.	4B-y	.
.	[1c	2A	.
.	.	2G	2b-y
=69	=69	=69	=69
1.F	2c]	1F	2a
.	2B-y	.	2g
.	2A	1c	[1f
2E	2G	.	.
=70	=70	=70	=70
2D	1F	0d	0f]
2C	.	.	.
1BB-y	1B-y	.	.
=71	=71	=71	=71
1F	1A	2.c	1f
.	.	4d	.
2C	[1c	2e	2g
[2F	.	[2f	[2a
=72	=72	=72	=72
2F]	1c]	2f]	2a]
2E	.	2g	2g
2F	2.c	2f	2a
2C	.	2e	[2g
.	4B-y	.	.
=73	=73	=73	=73
1D	2A	2d	4g]
.	.	.	4f
.	4G	2B-y	1f
.	4F	.	.
1C	1G	1c	.
.	.	.	2e
=74	=74	=74	=74
0FF	1F	2.c	2f
.	.	.	1cc
.	.	4B-y	.
.	[1c	2A	.
.	.	2G	2b-y
=75	=75	=75	=75
1.F	2c]	1F	2a
.	2B-y	.	2g
.	2A	1c	[1f
2E	2G	.	.
=76	=76	=76	=76
2D	1F	0d	0f]
2C	.	.	.
1BB-y	1B-y	.	.
=77	=77	=77	=77
1F	1A	2.c	1f
.	.	4d	.
2C	[1c	2e	2g
[2F	.	[2f	[2a
=78	=78	=78	=78
2F]	1c]	2f]	2a]
2E	.	2g	2g
2F	2.c	2f	2a
2C	.	2e	[2g
.	4B-y	.	.
=79	=79	=79	=79
1D	2A	2d	4g]
.	.	.	4f
.	4G	2B-y	1f
.	4F	.	.
1C	1G	1c	.
.	.	.	2e
=80	=80	=80	=80
*M3/1	*M3/1	*M3/1	*M3/1
*met(3)	*met(3)	*met(3)	*met(3)
0F	0F	0c	0f
1r	1r	1r	1r
=81	=81	=81	=81
0C	0c	0e	0g
1C	1c	1e	1g
=82	=82	=82	=82
0F	1c	0f	0a
.	0d	.	.
1D	.	1r	1f
=83	=83	=83	=83
1G	1B-y	1d	1g
1F	1c	0f	0a
1D	[1d	.	.
=84	=84	=84	=84
0G	1d]	0g	0b-y
.	1B-y	.	.
1r	[1c	[1e	1g
=85	=85	=85	=85
1.A	1c]	1e]	1.cc
.	1.F	1f	.
2G	.	.	2b-y
2F	.	1c	2a
2E	2G	.	2g
=86	=86	=86	=86
1D	2A	1d	1f
.	2B-y	.	.
1C	1c	1G	1e
1D	1A	[1d	2d
.	.	.	2c
=87	=87	=87	=87
1BB-y	1B-y	1d]	0f
0C	0G	0c	.
.	.	.	1e
=88	=88	=88	=88
*M2/1	*M2/1	*M2/1	*M2/1
*met(C|)	*met(C|)	*met(C|)	*met(C|)
0D	0F	0A	[0f
=89	=89	=89	=89
0BB-y	0B-y	0d	0f]
=90	=90	=90	=90
00Fl	00Al	00cl	00fl
==	==	==	==
*-	*-	*-	*-
!!!system-decoration: [*]
!!!RDF**kern: i = editorial accidental
!!!RDF**kern: l = terminal long
!!!ENC: Benjamin Ory
!!!END: 2024/12/30
!!!EED: Benjamin Ory
!!!EEV: 2025/02/17
!!!YEC: Copyright 2025 Benjamin Ory, All Rights Reserved
!!!ONB: Translated from MusicXML on 2025/02/17
